austria/municipalities/41725.svg

<?xml version="1.0" encoding="UTF-8"?>
<!DOCTYPE svg PUBLIC "-//W3C//DTD SVG 1.1//EN" "http://www.w3.org/Graphics/SVG/1.1/DTD/svg11.dtd">
<svg xmlns="http://www.w3.org/2000/svg" version="1.1" width="166px" height="207px" style="shape-rendering:geometricPrecision; text-rendering:geometricPrecision; image-rendering:optimizeQuality; fill-rule:evenodd; clip-rule:evenodd" xmlns:xlink="http://www.w3.org/1999/xlink">
<g><path style="opacity:1" fill="#000000" d="M -0.5,-0.5 C 54.8333,-0.5 110.167,-0.5 165.5,-0.5C 165.5,43.8333 165.5,88.1667 165.5,132.5C 159.762,165.428 141.429,188.595 110.5,202C 105.336,203.369 100.336,204.869 95.5,206.5C 86.8333,206.5 78.1667,206.5 69.5,206.5C 29.5683,196.564 6.23498,171.231 -0.5,130.5C -0.5,86.8333 -0.5,43.1667 -0.5,-0.5 Z"/></g>
<g><path style="opacity:1" fill="#fea700" d="M 62.5,71.5 C 57.2297,76.1514 51.8963,80.8181 46.5,85.5C 48.879,87.0419 51.5457,87.7086 54.5,87.5C 56.8912,87.4407 59.2246,87.1074 61.5,86.5C 61.8333,87 62.1667,87.5 62.5,88C 57.6934,98.8065 50.36,107.473 40.5,114C 40.6448,114.772 40.9781,115.439 41.5,116C 48.2182,118.051 54.8848,117.885 61.5,115.5C 62.6662,117.365 62.3329,119.032 60.5,120.5C 56.7281,124.947 52.3948,128.614 47.5,131.5C 47.9767,132.478 48.6433,133.311 49.5,134C 55.5,134.667 61.5,134.667 67.5,134C 70.8946,132.885 74.0613,131.385 77,129.5C 77.8299,135.196 77.6632,140.863 76.5,146.5C 67.0955,150.061 61.5955,156.727 60,166.5C 52.3694,157.343 43.7027,156.343 34,163.5C 31.3153,166.708 29.482,170.374 28.5,174.5C 27.8076,173.975 27.3076,173.308 27,172.5C 21.7162,155.746 18.8828,138.579 18.5,121C 19.7802,89.3034 24.4469,58.1368 32.5,27.5C 24.3086,25.2391 17.6419,20.7391 12.5,14C 17.9826,12.0458 23.6493,11.0458 29.5,11C 30.3567,10.3109 31.0233,9.47758 31.5,8.5C 30.6906,6.92908 30.3573,5.26241 30.5,3.5C 65.1667,3.5 99.8333,3.5 134.5,3.5C 133.947,5.93934 133.947,8.27267 134.5,10.5C 140.644,11.0102 146.644,12.1769 152.5,14C 148.044,20.274 142.044,24.4406 134.5,26.5C 134.167,27.1667 133.833,27.8333 133.5,28.5C 140.659,59.6029 144.992,91.1029 146.5,123C 146.507,140.828 143.34,157.995 137,174.5C 131.281,159.544 121.448,155.71 107.5,163C 106.789,164.255 105.956,165.421 105,166.5C 103.165,155.832 96.9984,149.165 86.5,146.5C 86.1712,140.794 86.5046,135.128 87.5,129.5C 96.2441,134.27 105.577,135.77 115.5,134C 116.428,133.612 117.095,132.945 117.5,132C 114.581,129.77 111.581,127.437 108.5,125C 106.167,122 103.833,119 101.5,116C 108.054,117.297 114.721,117.631 121.5,117C 123.18,116.653 124.18,115.653 124.5,114C 114.699,106.862 107.032,97.8618 101.5,87C 106.449,87.4916 111.449,87.4916 116.5,87C 117.308,86.6924 117.975,86.1924 118.5,85.5C 114.84,82.0092 111.006,78.6758 107,75.5C 103.584,71.9165 100.751,67.9165 98.5,63.5C 101.002,63.3787 103.668,63.2121 106.5,63C 108.619,62.9024 110.286,62.0691 111.5,60.5C 102.74,54.6412 96.0731,46.9745 91.5,37.5C 93.396,36.5344 95.396,36.2011 97.5,36.5C 97.6495,35.448 97.4828,34.448 97,33.5C 91.3226,27.4778 87.3226,20.4778 85,12.5C 84.3109,11.6433 83.4776,10.9767 82.5,10.5C 79.3999,14.7874 76.8999,19.4541 75,24.5C 72.9083,27.681 70.575,30.681 68,33.5C 67.5172,34.448 67.3505,35.448 67.5,36.5C 69.604,36.2011 71.604,36.5344 73.5,37.5C 68.9558,47.0421 62.2891,54.7088 53.5,60.5C 54.3805,61.9705 55.7139,62.8038 57.5,63C 60.8557,63.2148 64.189,63.2148 67.5,63C 65.1804,65.4778 63.5137,68.3111 62.5,71.5 Z"/></g>
<g><path style="opacity:1" fill="#00602a" d="M 62.5,71.5 C 64.6237,70.9688 66.1237,69.6355 67,67.5C 67.6353,65.3822 68.4686,63.3822 69.5,61.5C 69.1667,60.8333 68.8333,60.1667 68.5,59.5C 64.4328,61.3672 60.4328,61.5339 56.5,60C 65.8649,53.4665 72.8649,44.9665 77.5,34.5C 75.2692,34.1133 72.9359,33.9466 70.5,34C 75.3867,27.7325 79.3867,20.8992 82.5,13.5C 85.5996,20.8667 89.5996,27.7001 94.5,34C 92.144,34.1554 89.8107,34.1554 87.5,34C 91.9672,44.7917 98.9672,53.4584 108.5,60C 107.57,60.9907 106.404,61.4907 105,61.5C 101.494,60.5953 97.9945,60.0953 94.5,60C 99.3053,70.1418 106.305,78.4751 115.5,85C 109.655,86.1379 104.155,85.3046 99,82.5C 101.443,90.379 105.276,97.7123 110.5,104.5C 113.954,108.389 117.954,111.556 122.5,114C 119.793,115.057 116.96,115.557 114,115.5C 108.41,114.848 102.91,114.014 97.5,113C 101.379,120.217 106.712,126.217 113.5,131C 101.1,134.54 90.7666,131.373 82.5,121.5C 74.2334,131.373 63.9001,134.54 51.5,131C 58.1263,126.542 63.1263,120.709 66.5,113.5C 66.1667,113.167 65.8333,112.833 65.5,112.5C 57.9693,115.682 50.3027,116.182 42.5,114C 46.6149,111.552 50.4482,108.719 54,105.5C 58.9614,98.2215 63.4614,90.7215 67.5,83C 64.9313,83.5901 62.2646,84.2568 59.5,85C 56.1667,85.6667 52.8333,85.6667 49.5,85C 54.7314,81.2704 59.0647,76.7704 62.5,71.5 Z"/></g>
<g><path style="opacity:1" fill="#fefffe" d="M 10.5,16.5 C 11.1096,59.3505 11.2762,102.351 11,145.5C 9.46387,132.72 8.63053,119.886 8.5,107C 9.34391,76.8359 10.0106,46.6693 10.5,16.5 Z"/></g>
<g><path style="opacity:1" fill="#fefffe" d="M 153.5,16.5 C 154.326,20.9819 154.826,25.6486 155,30.5C 155.366,57.336 155.866,84.1694 156.5,111C 156.692,122.921 155.859,134.755 154,146.5C 154.5,103.18 154.334,59.8466 153.5,16.5 Z"/></g>
<g><path style="opacity:1" fill="#00612a" d="M 81.5,125.5 C 82.4959,125.414 83.3292,125.748 84,126.5C 84.4996,133.158 84.6663,139.825 84.5,146.5C 82.8333,146.5 81.1667,146.5 79.5,146.5C 79.3338,140.158 79.5005,133.825 80,127.5C 80.7172,126.956 81.2172,126.289 81.5,125.5 Z"/></g>
<g><path style="opacity:1" fill="#fefffe" d="M -0.5,130.5 C 6.23498,171.231 29.5683,196.564 69.5,206.5C 46.1667,206.5 22.8333,206.5 -0.5,206.5C -0.5,181.167 -0.5,155.833 -0.5,130.5 Z"/></g>
<g><path style="opacity:1" fill="#fefffe" d="M 165.5,132.5 C 165.5,157.167 165.5,181.833 165.5,206.5C 142.167,206.5 118.833,206.5 95.5,206.5C 100.336,204.869 105.336,203.369 110.5,202C 141.429,188.595 159.762,165.428 165.5,132.5 Z"/></g>
<g><path style="opacity:1" fill="#00612a" d="M 80.5,147.5 C 95.9219,148.579 103.589,156.579 103.5,171.5C 105.85,169.313 107.85,166.813 109.5,164C 122.541,158.02 130.874,162.02 134.5,176C 133.928,179.384 132.761,182.551 131,185.5C 112.806,200.259 91.9729,205.759 68.5,202C 54.84,199.626 43.0067,193.793 33,184.5C 28.5283,173.607 31.6949,165.774 42.5,161C 51.1049,160.284 57.2716,163.784 61,171.5C 61.9383,158.749 68.4383,150.749 80.5,147.5 Z"/></g>
</svg>

<svg xmlns="http://www.w3.org/2000/svg" width="166" height="207" style="shape-rendering:geometricPrecision;text-rendering:geometricPrecision;image-rendering:optimizeQuality;fill-rule:evenodd;clip-rule:evenodd"><path style="opacity:1" d="M-.5-.5h166v133c-5.738 32.928-24.071 56.095-55 69.5a236.853 236.853 0 0 0-15 4.5h-26c-39.932-9.936-63.265-35.269-70-76V-.5z"/><path style="opacity:1" fill="#fea700" d="M62.5 71.5a2510.328 2510.328 0 0 1-16 14c2.379 1.542 5.046 2.209 8 2a29.921 29.921 0 0 0 7-1l1 1.5c-4.807 10.806-12.14 19.473-22 26a3.942 3.942 0 0 0 1 2c6.718 2.051 13.385 1.885 20-.5 1.166 1.865.833 3.532-1 5-3.772 4.447-8.105 8.114-13 11a7.248 7.248 0 0 0 2 2.5c6 .667 12 .667 18 0a41.503 41.503 0 0 0 9.5-4.5 48.728 48.728 0 0 1-.5 17c-9.404 3.561-14.904 10.227-16.5 20-7.63-9.157-16.297-10.157-26-3-2.685 3.208-4.518 6.874-5.5 11a4.451 4.451 0 0 1-1.5-2 183.664 183.664 0 0 1-8.5-51.5 435.909 435.909 0 0 1 14-93.5c-8.191-2.26-14.858-6.76-20-13.5a51.48 51.48 0 0 1 17-3 7.253 7.253 0 0 0 2-2.5 9.106 9.106 0 0 1-1-5h104c-.553 2.44-.553 4.773 0 7a83.664 83.664 0 0 1 18 3.5c-4.456 6.274-10.456 10.44-18 12.5l-1 2a532.583 532.583 0 0 1 13 94.5c.007 17.828-3.16 34.995-9.5 51.5-5.719-14.956-15.552-18.79-29.5-11.5a20.499 20.499 0 0 1-2.5 3.5c-1.835-10.668-8.002-17.335-18.5-20a73.122 73.122 0 0 1 1-17c8.744 4.77 18.077 6.27 28 4.5.928-.388 1.595-1.055 2-2a677.566 677.566 0 0 1-9-7l-7-9c6.554 1.297 13.221 1.631 20 1 1.68-.347 2.68-1.347 3-3-9.801-7.138-17.468-16.138-23-27 4.949.492 9.949.492 15 0a4.451 4.451 0 0 0 2-1.5 166.667 166.667 0 0 0-11.5-10 50.6 50.6 0 0 1-8.5-12c2.502-.121 5.168-.288 8-.5 2.119-.098 3.786-.93 5-2.5-8.76-5.859-15.427-13.526-20-23a9.864 9.864 0 0 1 6-1 4.932 4.932 0 0 0-.5-3c-5.677-6.022-9.677-13.022-12-21a7.253 7.253 0 0 0-2.5-2 59.64 59.64 0 0 0-7.5 14 71.888 71.888 0 0 1-7 9 4.932 4.932 0 0 0-.5 3 9.864 9.864 0 0 1 6 1c-4.544 9.542-11.21 17.209-20 23 .88 1.47 2.214 2.304 4 2.5 3.356.215 6.689.215 10 0-2.32 2.478-3.986 5.311-5 8.5z"/><path style="opacity:1" fill="#00602a" d="M62.5 71.5c2.124-.531 3.624-1.865 4.5-4a30.952 30.952 0 0 1 2.5-6l-1-2c-4.067 1.867-8.067 2.034-12 .5 9.365-6.533 16.365-15.033 21-25.5a36.265 36.265 0 0 0-7-.5 89.864 89.864 0 0 0 12-20.5c3.1 7.367 7.1 14.2 12 20.5a52.61 52.61 0 0 1-7 0c4.467 10.792 11.467 19.458 21 26-.93.99-2.096 1.49-3.5 1.5A47.042 47.042 0 0 0 94.5 60c4.805 10.142 11.805 18.475 21 25-5.845 1.138-11.345.305-16.5-2.5 2.443 7.879 6.276 15.212 11.5 22a43.461 43.461 0 0 0 12 9.5 21.978 21.978 0 0 1-8.5 1.5 241.265 241.265 0 0 1-16.5-2.5c3.879 7.217 9.212 13.217 16 18-12.4 3.54-22.733.373-31-9.5-8.267 9.873-18.6 13.04-31 9.5 6.626-4.458 11.626-10.291 15-17.5l-1-1c-7.53 3.182-15.197 3.682-23 1.5a71.579 71.579 0 0 0 11.5-8.5A225.363 225.363 0 0 0 67.5 83a224.31 224.31 0 0 0-8 2 25.249 25.249 0 0 1-10 0c5.231-3.73 9.565-8.23 13-13.5z"/><path style="opacity:1" fill="#fefffe" d="M10.5 16.5c.61 42.85.776 85.851.5 129A352.277 352.277 0 0 1 8.5 107c.844-30.164 1.51-60.33 2-90.5zM153.5 16.5c.826 4.482 1.326 9.149 1.5 14 .366 26.836.866 53.67 1.5 80.5a205.49 205.49 0 0 1-2.5 35.5c.5-43.32.334-86.653-.5-130z"/><path style="opacity:1" fill="#00612a" d="M81.5 125.5c.996-.086 1.83.248 2.5 1 .5 6.658.666 13.325.5 20h-5c-.166-6.342 0-12.675.5-19 .717-.544 1.217-1.211 1.5-2z"/><path style="opacity:1" fill="#fefffe" d="M-.5 130.5c6.735 40.731 30.068 66.064 70 76h-70v-76zM165.5 132.5v74h-70a236.853 236.853 0 0 1 15-4.5c30.929-13.405 49.262-36.572 55-69.5z"/><path style="opacity:1" fill="#00612a" d="M80.5 147.5c15.422 1.079 23.089 9.079 23 24a32.97 32.97 0 0 0 6-7.5c13.041-5.98 21.374-1.98 25 12a27.224 27.224 0 0 1-3.5 9.5c-18.194 14.759-39.027 20.259-62.5 16.5-13.66-2.374-25.493-8.207-35.5-17.5-4.472-10.893-1.305-18.726 9.5-23.5 8.605-.716 14.772 2.784 18.5 10.5.938-12.751 7.438-20.751 19.5-24z"/></svg>
